X: 10391
T: Donald Blue
R: reel
M: 4/4
K: Dmajor
|:dBAF ADFA|dBAF (3EFE D2|dBAF ADFA|1 GB{d}BA BG (3ABc:|2 GB{d}BA BcdB||
|:ABde fedf|gbfg edBd|ABde fedc|1 AB{d}BA BcdB:|2 AB{d}BA BG (3ABc||

